X:136
T:Clutha
T:The Bow-Legged Bosun
C:J. M. Hunter
N:Play ABABAB x 4
S:Colin Hume's website,  colinhume.com  - chords can also be printed below the stave.
Q:1/2=116
M:C|
L:1/8
K:A
AB | "A"c2A2 A2Bc | "Bm"d2B2 "E"B2cd | "A"e2c2 "Bm"dcBA | "E"G2E2 "E7"E2AB |\
"A"c2A2 A2Bc | "Bm"d2B2 "E"B2cd | "A"ea"Bm"da "A"ca"E7"Ba | "A"c2A2 A2 ||
BA | "E"G2E2 "E7"edcB | "A"c2A2 "A7"A2Bc | "D"d2dd "Bm"dfaf | "A"e4-"E7"e2 fg |\
"A"{g}a2ed cBAG | "Bm"F2{c}dc "E7"BAGF | "A"E2A2 "E7"GABG | "A"A2A,2 A,2 |]

